packages/components/icons/assets/Twitter.svg

<svg viewBox="0 0 24 24" xmlns="http://www.w3.org/2000/svg" data-title="Twitter" fill="currentColor" stroke="none">
  <path d="m17.8,3h3.1l-6.8,7.7,7.9,10.3h-6.2l-4.8-6.2-5.5,6.2h-3.1l7.2-8.2L2,3h6.3l4.4,5.8,5.1-5.8Zm-1.1,16.2h1.7L7.4,4.7h-1.8l11.1,14.5Z"/>
</svg>

<svg viewBox="0 0 24 24" xmlns="http://www.w3.org/2000/svg" data-title="Twitter" fill="currentColor" stroke="none">
  <path d="M17.8,3h3.1l-6.8,7.7L22,21h-6.2L11,14.8L5.5,21H2.4l7.2-8.2L2,3h6.3l4.4,5.8L17.8,3z M16.7,19.2h1.7L7.4,4.7
	H5.6L16.7,19.2z"/>
</svg>
